public/section2/screen5.svg

<svg width="962" height="556" viewBox="0 0 962 556" fill="none" xmlns="http://www.w3.org/2000/svg">
<g filter="url(#filter0_d_24_8248)">
<mask id="path-1-outside-1_24_8248" maskUnits="userSpaceOnUse" x="-0.909851" y="-0.90979" width="963" height="553" fill="black">
<rect fill="white" x="-0.909851" y="-0.90979" width="963" height="553"/>
<path d="M899.98 19.5111C899.98 36.8815 918.937 50.9699 942.36 51.0453V500.975C919.126 501.05 900.29 514.913 899.987 532.09H61.0843C60.783 515.007 42.1498 501.202 19.0901 500.979V51.0414C42.3385 50.8164 61.0908 36.7879 61.0911 19.5111C61.0911 19.3707 61.0868 19.2302 61.0843 19.0902H899.987C899.984 19.2302 899.98 19.3707 899.98 19.5111Z"/>
</mask>
<path d="M899.98 19.5111C899.98 36.8815 918.937 50.9699 942.36 51.0453V500.975C919.126 501.05 900.29 514.913 899.987 532.09H61.0843C60.783 515.007 42.1498 501.202 19.0901 500.979V51.0414C42.3385 50.8164 61.0908 36.7879 61.0911 19.5111C61.0911 19.3707 61.0868 19.2302 61.0843 19.0902H899.987C899.984 19.2302 899.98 19.3707 899.98 19.5111Z" fill="#FDE0A3"/>
<path d="M899.98 19.5111C899.98 36.8815 918.937 50.9699 942.36 51.0453V500.975C919.126 501.05 900.29 514.913 899.987 532.09H61.0843C60.783 515.007 42.1498 501.202 19.0901 500.979V51.0414C42.3385 50.8164 61.0908 36.7879 61.0911 19.5111C61.0911 19.3707 61.0868 19.2302 61.0843 19.0902H899.987C899.984 19.2302 899.98 19.3707 899.98 19.5111Z" fill="url(#paint0_linear_24_8248)"/>
<path d="M899.98 19.5111H880.89V19.5115L899.98 19.5111ZM942.36 51.0453H961.45C961.45 40.5261 952.94 31.9891 942.421 31.9552L942.36 51.0453ZM942.36 500.975L942.421 520.065C952.94 520.031 961.45 511.494 961.45 500.975H942.36ZM899.987 532.09V551.18C910.399 551.18 918.89 542.837 919.074 532.427L899.987 532.09ZM61.0843 532.09L41.9971 532.427C42.1807 542.837 50.6723 551.18 61.0843 551.18V532.09ZM19.0901 500.979H-1.52588e-05C-1.52588e-05 511.45 8.43476 519.967 18.9054 520.068L19.0901 500.979ZM19.0901 51.0414L18.9054 31.9521C8.43476 32.0534 -1.52588e-05 40.5703 -1.52588e-05 51.0414H19.0901ZM61.0911 19.5111L80.1813 19.5115V19.5111H61.0911ZM61.0843 19.0902V4.57764e-05C55.9629 4.57764e-05 51.0563 2.05783 47.467 5.71099C43.8777 9.36415 41.9068 14.3063 41.9971 19.4269L61.0843 19.0902ZM899.987 19.0902L919.074 19.4269C919.164 14.3063 917.193 9.36414 913.604 5.71098C910.015 2.05783 905.108 4.57764e-05 899.987 4.57764e-05V19.0902ZM899.98 19.5111L880.89 19.5115C880.89 35.6333 889.73 48.7039 900.993 57.0814C912.257 65.4594 926.921 70.0858 942.298 70.1354L942.36 51.0453L942.421 31.9552C934.375 31.9293 927.85 29.4739 923.78 26.4463C919.708 23.4181 919.07 20.7594 919.07 19.5107L899.98 19.5111ZM942.36 51.0453H923.27V500.975H942.36H961.45V51.0453H942.36ZM942.36 500.975L942.298 481.885C927.041 481.934 912.494 486.488 901.27 494.736C890.057 502.975 881.18 515.825 880.899 531.754L899.987 532.09L919.074 532.427C919.096 531.178 919.788 528.508 923.878 525.503C927.957 522.506 934.444 520.091 942.421 520.065L942.36 500.975ZM899.987 532.09V513H61.0843V532.09V551.18H899.987V532.09ZM61.0843 532.09L80.1715 531.754C79.8921 515.914 71.1092 503.114 59.9857 494.873C48.8552 486.627 34.4234 482.036 19.2749 481.89L19.0901 500.979L18.9054 520.068C26.8166 520.145 33.2311 522.568 37.2575 525.551C41.2908 528.539 41.9751 531.183 41.9971 532.427L61.0843 532.09ZM19.0901 500.979H38.1803V51.0414H19.0901H-1.52588e-05V500.979H19.0901ZM19.0901 51.0414L19.2749 70.1307C34.5434 69.9829 49.0914 65.3201 60.2617 56.9435C71.4355 48.5643 80.181 35.5439 80.1813 19.5115L61.0911 19.5111L42.001 19.5107C42.0009 20.7552 41.3701 23.3873 37.3555 26.3978C33.3375 29.4109 26.8852 31.8749 18.9054 31.9521L19.0901 51.0414ZM61.0911 19.5111H80.1813C80.1813 19.253 80.1773 19.036 80.175 18.9197C80.1739 18.864 80.1726 18.8035 80.1721 18.7833C80.1715 18.7524 80.1714 18.7488 80.1715 18.7535L61.0843 19.0902L41.9971 19.4269C41.9984 19.5016 41.9998 19.568 42.0007 19.6072C42.0009 19.6174 42.0011 19.6277 42.0013 19.6357C42.0015 19.6443 42.0016 19.6512 42.0018 19.6575C42.002 19.6704 42.0022 19.6773 42.0023 19.6813C42.0024 19.6901 42.0021 19.676 42.0018 19.6494C42.0014 19.622 42.001 19.574 42.001 19.5111H61.0911ZM61.0843 19.0902V38.1804H899.987V19.0902V4.57764e-05H61.0843V19.0902ZM899.987 19.0902L880.899 18.7535C880.9 18.7488 880.899 18.7524 880.899 18.7833C880.898 18.8035 880.897 18.864 880.896 18.9197C880.894 19.036 880.89 19.253 880.89 19.5111H899.98H919.07C919.07 19.574 919.069 19.6221 919.069 19.6494C919.069 19.676 919.068 19.6901 919.069 19.6813C919.069 19.6773 919.069 19.6704 919.069 19.6575C919.069 19.6512 919.069 19.6443 919.07 19.6357C919.07 19.6277 919.07 19.6174 919.07 19.6072C919.071 19.568 919.073 19.5016 919.074 19.4269L899.987 19.0902Z" fill="#FDE0A3" mask="url(#path-1-outside-1_24_8248)"/>
<path d="M899.98 19.5111H880.89V19.5115L899.98 19.5111ZM942.36 51.0453H961.45C961.45 40.5261 952.94 31.9891 942.421 31.9552L942.36 51.0453ZM942.36 500.975L942.421 520.065C952.94 520.031 961.45 511.494 961.45 500.975H942.36ZM899.987 532.09V551.18C910.399 551.18 918.89 542.837 919.074 532.427L899.987 532.09ZM61.0843 532.09L41.9971 532.427C42.1807 542.837 50.6723 551.18 61.0843 551.18V532.09ZM19.0901 500.979H-1.52588e-05C-1.52588e-05 511.45 8.43476 519.967 18.9054 520.068L19.0901 500.979ZM19.0901 51.0414L18.9054 31.9521C8.43476 32.0534 -1.52588e-05 40.5703 -1.52588e-05 51.0414H19.0901ZM61.0911 19.5111L80.1813 19.5115V19.5111H61.0911ZM61.0843 19.0902V4.57764e-05C55.9629 4.57764e-05 51.0563 2.05783 47.467 5.71099C43.8777 9.36415 41.9068 14.3063 41.9971 19.4269L61.0843 19.0902ZM899.987 19.0902L919.074 19.4269C919.164 14.3063 917.193 9.36414 913.604 5.71098C910.015 2.05783 905.108 4.57764e-05 899.987 4.57764e-05V19.0902ZM899.98 19.5111L880.89 19.5115C880.89 35.6333 889.73 48.7039 900.993 57.0814C912.257 65.4594 926.921 70.0858 942.298 70.1354L942.36 51.0453L942.421 31.9552C934.375 31.9293 927.85 29.4739 923.78 26.4463C919.708 23.4181 919.07 20.7594 919.07 19.5107L899.98 19.5111ZM942.36 51.0453H923.27V500.975H942.36H961.45V51.0453H942.36ZM942.36 500.975L942.298 481.885C927.041 481.934 912.494 486.488 901.27 494.736C890.057 502.975 881.18 515.825 880.899 531.754L899.987 532.09L919.074 532.427C919.096 531.178 919.788 528.508 923.878 525.503C927.957 522.506 934.444 520.091 942.421 520.065L942.36 500.975ZM899.987 532.09V513H61.0843V532.09V551.18H899.987V532.09ZM61.0843 532.09L80.1715 531.754C79.8921 515.914 71.1092 503.114 59.9857 494.873C48.8552 486.627 34.4234 482.036 19.2749 481.89L19.0901 500.979L18.9054 520.068C26.8166 520.145 33.2311 522.568 37.2575 525.551C41.2908 528.539 41.9751 531.183 41.9971 532.427L61.0843 532.09ZM19.0901 500.979H38.1803V51.0414H19.0901H-1.52588e-05V500.979H19.0901ZM19.0901 51.0414L19.2749 70.1307C34.5434 69.9829 49.0914 65.3201 60.2617 56.9435C71.4355 48.5643 80.181 35.5439 80.1813 19.5115L61.0911 19.5111L42.001 19.5107C42.0009 20.7552 41.3701 23.3873 37.3555 26.3978C33.3375 29.4109 26.8852 31.8749 18.9054 31.9521L19.0901 51.0414ZM61.0911 19.5111H80.1813C80.1813 19.253 80.1773 19.036 80.175 18.9197C80.1739 18.864 80.1726 18.8035 80.1721 18.7833C80.1715 18.7524 80.1714 18.7488 80.1715 18.7535L61.0843 19.0902L41.9971 19.4269C41.9984 19.5016 41.9998 19.568 42.0007 19.6072C42.0009 19.6174 42.0011 19.6277 42.0013 19.6357C42.0015 19.6443 42.0016 19.6512 42.0018 19.6575C42.002 19.6704 42.0022 19.6773 42.0023 19.6813C42.0024 19.6901 42.0021 19.676 42.0018 19.6494C42.0014 19.622 42.001 19.574 42.001 19.5111H61.0911ZM61.0843 19.0902V38.1804H899.987V19.0902V4.57764e-05H61.0843V19.0902ZM899.987 19.0902L880.899 18.7535C880.9 18.7488 880.899 18.7524 880.899 18.7833C880.898 18.8035 880.897 18.864 880.896 18.9197C880.894 19.036 880.89 19.253 880.89 19.5111H899.98H919.07C919.07 19.574 919.069 19.6221 919.069 19.6494C919.069 19.676 919.068 19.6901 919.069 19.6813C919.069 19.6773 919.069 19.6704 919.069 19.6575C919.069 19.6512 919.069 19.6443 919.07 19.6357C919.07 19.6277 919.07 19.6174 919.07 19.6072C919.071 19.568 919.073 19.5016 919.074 19.4269L899.987 19.0902Z" fill="url(#paint1_linear_24_8248)" mask="url(#path-1-outside-1_24_8248)"/>
</g>
<defs>
<filter id="filter0_d_24_8248" x="0" y="0" width="961.45" height="555.672" filterUnits="userSpaceOnUse" color-interpolation-filters="sRGB">
<feFlood flood-opacity="0" result="BackgroundImageFix"/>
<feColorMatrix in="SourceAlpha" type="matrix" values="0 0 0 0 0 0 0 0 0 0 0 0 0 0 0 0 0 0 127 0" result="hardAlpha"/>
<feOffset dy="4.4918"/>
<feComposite in2="hardAlpha" operator="out"/>
<feColorMatrix type="matrix" values="0 0 0 0 0.913725 0 0 0 0 0.498039 0 0 0 0 0.0392157 0 0 0 1 0"/>
<feBlend mode="normal" in2="BackgroundImageFix" result="effect1_dropShadow_24_8248"/>
<feBlend mode="normal" in="SourceGraphic" in2="effect1_dropShadow_24_8248" result="shape"/>
</filter>
<linearGradient id="paint0_linear_24_8248" x1="19.0901" y1="275.59" x2="942.36" y2="275.59" gradientUnits="userSpaceOnUse">
<stop stop-color="#3C3024"/>
<stop offset="1" stop-color="#BD7B49"/>
</linearGradient>
<linearGradient id="paint1_linear_24_8248" x1="19.0901" y1="275.59" x2="942.36" y2="275.59" gradientUnits="userSpaceOnUse">
<stop stop-color="#3C3024"/>
<stop offset="1" stop-color="#BD7B49"/>
</linearGradient>
</defs>
</svg>

<svg xmlns="http://www.w3.org/2000/svg" width="962" height="556" fill="none" viewBox="0 0 962 556"><g filter="url(#a)"><mask id="c" width="963" height="553" x="-.91" y="-.91" fill="#000" maskUnits="userSpaceOnUse"><path fill="#fff" d="M-.91-.91h963v553h-963z"/><path d="M899.98 19.51c0 17.37 18.96 31.46 42.38 31.54v449.93c-23.23.07-42.07 13.93-42.37 31.11H61.08c-.3-17.08-18.93-30.89-41.99-31.11V51.04c23.25-.22 42-14.25 42-31.53 0-.14 0-.28-.01-.42h838.91c-.01.14-.01.28-.01.42"/></mask><path fill="#fde0a3" d="M899.98 19.51c0 17.37 18.96 31.46 42.38 31.54v449.93c-23.23.07-42.07 13.93-42.37 31.11H61.08c-.3-17.08-18.93-30.89-41.99-31.11V51.04c23.25-.22 42-14.25 42-31.53 0-.14 0-.28-.01-.42h838.91c-.01.14-.01.28-.01.42"/><path fill="url(#b)" d="M899.98 19.51c0 17.37 18.96 31.46 42.38 31.54v449.93c-23.23.07-42.07 13.93-42.37 31.11H61.08c-.3-17.08-18.93-30.89-41.99-31.11V51.04c23.25-.22 42-14.25 42-31.53 0-.14 0-.28-.01-.42h838.91c-.01.14-.01.28-.01.42"/><path fill="#fde0a3" d="M899.98 19.51h-19.09zm42.38 31.54h19.09c0-10.52-8.51-19.06-19.03-19.09zm0 449.93.06 19.09c10.52-.04 19.03-8.58 19.03-19.09zm-42.37 31.11v19.09c10.41 0 18.9-8.34 19.08-18.75zm-838.91 0-19.08.34c.18 10.41 8.67 18.75 19.08 18.75zm-41.99-31.11H0c0 10.47 8.43 18.99 18.91 19.09zm0-449.94-.18-19.09C8.43 32.05 0 40.57 0 51.04zm42-31.53h19.09zm-.01-.42V0A19.09 19.09 0 0 0 42 19.43zm838.91 0 19.08.34A19.09 19.09 0 0 0 899.99 0zm-.01.42h-19.09c0 16.12 8.84 29.19 20.1 37.57 11.27 8.38 25.93 13.01 41.31 13.06l.06-19.09.06-19.09c-8.04-.03-14.57-2.49-18.64-5.51-4.07-3.03-4.71-5.69-4.71-6.94zm42.38 31.54h-19.09v449.93h38.18V51.05zm0 449.93-.06-19.1c-15.26.05-29.81 4.61-41.03 12.86-11.21 8.24-20.09 21.09-20.37 37.01l19.09.34 19.08.34c.03-1.25.72-3.92 4.81-6.93 4.08-2.99 10.56-5.41 18.54-5.43zm-42.37 31.11V513H61.08v38.18h838.91zm-838.91 0 19.09-.34c-.28-15.84-9.06-28.64-20.18-36.88-11.13-8.24-25.57-12.83-40.72-12.98l-.18 19.09-.18 19.09c7.91.07 14.32 2.5 18.35 5.48 4.03 2.99 4.72 5.63 4.74 6.88zm-41.99-31.11h19.09V51.04H0v449.94zm0-449.94.18 19.09c15.27-.15 29.82-4.81 40.99-13.19 11.18-8.38 19.92-21.4 19.92-37.43H42c0 1.25-.63 3.88-4.64 6.89-4.02 3.01-10.47 5.47-18.45 5.55zm42-31.53h19.09c0-.26 0-.47-.01-.59v-.17l-19.09.34-19.08.34v.25-.17zm-.01-.42v19.09h838.91V0H61.08zm838.91 0-19.09-.34v.17c-.01.12-.01.33-.01.59h38.18v.17-.25z" mask="url(#c)"/><path fill="url(#d)" d="M899.98 19.51h-19.09zm42.38 31.54h19.09c0-10.52-8.51-19.06-19.03-19.09zm0 449.93.06 19.09c10.52-.04 19.03-8.58 19.03-19.09zm-42.37 31.11v19.09c10.41 0 18.9-8.34 19.08-18.75zm-838.91 0-19.08.34c.18 10.41 8.67 18.75 19.08 18.75zm-41.99-31.11H0c0 10.47 8.43 18.99 18.91 19.09zm0-449.94-.18-19.09C8.43 32.05 0 40.57 0 51.04zm42-31.53h19.09zm-.01-.42V0A19.09 19.09 0 0 0 42 19.43zm838.91 0 19.08.34A19.09 19.09 0 0 0 899.99 0zm-.01.42h-19.09c0 16.12 8.84 29.19 20.1 37.57 11.27 8.38 25.93 13.01 41.31 13.06l.06-19.09.06-19.09c-8.04-.03-14.57-2.49-18.64-5.51-4.07-3.03-4.71-5.69-4.71-6.94zm42.38 31.54h-19.09v449.93h38.18V51.05zm0 449.93-.06-19.1c-15.26.05-29.81 4.61-41.03 12.86-11.21 8.24-20.09 21.09-20.37 37.01l19.09.34 19.08.34c.03-1.25.72-3.92 4.81-6.93 4.08-2.99 10.56-5.41 18.54-5.43zm-42.37 31.11V513H61.08v38.18h838.91zm-838.91 0 19.09-.34c-.28-15.84-9.06-28.64-20.18-36.88-11.13-8.24-25.57-12.83-40.72-12.98l-.18 19.09-.18 19.09c7.91.07 14.32 2.5 18.35 5.48 4.03 2.99 4.72 5.63 4.74 6.88zm-41.99-31.11h19.09V51.04H0v449.94zm0-449.94.18 19.09c15.27-.15 29.82-4.81 40.99-13.19 11.18-8.38 19.92-21.4 19.92-37.43H42c0 1.25-.63 3.88-4.64 6.89-4.02 3.01-10.47 5.47-18.45 5.55zm42-31.53h19.09c0-.26 0-.47-.01-.59v-.17l-19.09.34-19.08.34v.25-.17zm-.01-.42v19.09h838.91V0H61.08zm838.91 0-19.09-.34v.17c-.01.12-.01.33-.01.59h38.18v.17-.25z" mask="url(#c)"/></g><defs><linearGradient id="b" x1="19.09" x2="942.36" y1="275.59" y2="275.59" gradientUnits="userSpaceOnUse"><stop stop-color="#3c3024"/><stop offset="1" stop-color="#bd7b49"/></linearGradient><linearGradient id="d" x1="19.09" x2="942.36" y1="275.59" y2="275.59" gradientUnits="userSpaceOnUse"><stop stop-color="#3c3024"/><stop offset="1" stop-color="#bd7b49"/></linearGradient><filter id="a" width="961.45" height="555.67" x="0" y="0" color-interpolation-filters="sRGB" filterUnits="userSpaceOnUse"><feFlood flood-opacity="0" result="BackgroundImageFix"/><feColorMatrix in="SourceAlpha" result="hardAlpha" values="0 0 0 0 0 0 0 0 0 0 0 0 0 0 0 0 0 0 127 0"/><feOffset dy="4.49"/><feComposite in2="hardAlpha" operator="out"/><feColorMatrix values="0 0 0 0 0.91 0 0 0 0 0.50 0 0 0 0 0.04 0 0 0 1 0"/><feBlend in2="BackgroundImageFix" result="effect1_dropShadow_24_8248"/><feBlend in="SourceGraphic" in2="effect1_dropShadow_24_8248" result="shape"/></filter></defs></svg>
